src/Icon/svgs/TalkHelpOutlineRight.svg

<svg width="24" height="24" viewBox="0 0 24 24" fill="none" xmlns="http://www.w3.org/2000/svg">
<path fill-rule="evenodd" clip-rule="evenodd" d="M19.083 17.6132L19.5325 16.9278C20.4603 15.5132 21 13.8227 21 12C21 7.02944 16.9706 3 12 3C7.02944 3 3 7.02944 3 12C3 16.9706 7.02944 21 12 21C13.8227 21 15.5132 20.4603 16.9278 19.5325L17.6132 19.083L19.4505 19.4505L19.083 17.6132ZM22 22L18.0247 21.2049C16.2941 22.3399 14.2241 23 12 23C5.92487 23 1 18.0751 1 12C1 5.92487 5.92487 1 12 1C18.0751 1 23 5.92487 23 12C23 14.2241 22.3399 16.2941 21.2049 18.0247L22 22Z" fill="#1B1C1D"/>
<path fill-rule="evenodd" clip-rule="evenodd" d="M13 17.9999V15.9999H11V17.9999H13ZM12 5.99988C9.79 5.99988 8 7.78988 8 9.99988H10C10 8.89988 10.9 7.99988 12 7.99988C13.1 7.99988 14 8.89988 14 9.99988C14 10.8791 13.4202 11.3235 12.7704 11.8216C11.9421 12.4565 11 13.1786 11 14.9999H13C13 13.9045 13.7053 13.2882 14.4319 12.6532L14.4408 12.6454C15.21 11.9732 16 11.2828 16 9.99988C16 7.78988 14.21 5.99988 12 5.99988Z" fill="#1B1C1D"/>
</svg>

<svg xmlns="http://www.w3.org/2000/svg" width="24" height="24" fill="#1b1c1d"  fill-rule="evenodd" xmlns:v="https://vecta.io/nano"><path d="M19.083 17.613l.45-.685A8.95 8.95 0 0 0 21 12a9 9 0 1 0-9 9 8.95 8.95 0 0 0 4.928-1.468l.685-.45 1.837.368-.368-1.837zM22 22l-3.975-.795A10.95 10.95 0 0 1 12 23C5.925 23 1 18.075 1 12S5.925 1 12 1s11 4.925 11 11a10.95 10.95 0 0 1-1.795 6.025L22 22zm-9-4v-2h-2v2h2zM12 6a4 4 0 0 0-4 4h2c0-1.1.9-2 2-2s2 .9 2 2c0 .879-.58 1.324-1.23 1.822C11.942 12.457 11 13.179 11 15h2c0-1.095.705-1.712 1.432-2.347l.009-.008C15.21 11.973 16 11.283 16 10a4 4 0 0 0-4-4z"/></svg>
